X: 02100
T: the PERRIE DANCE
C: Bob McQuillen May'74
B: Bob's Note Book 1&2 #100
%R: jig
Z: 2019 John Chambers <jc:trillian.mit.edu>
M: 6/8
L: 1/8
K: D
A \
| ded cBA | def gfe | fga agf | gfg e2A |\
| ded cBA | def gfe | fga agf | edc d2 :|
|: e \
| fga agf | gfg ecA | fga agf | gab e2g |\
| fga agf | efd cBA | def edB | Add d2 :|
%%begintext align
%% For Perry Anable XXOO
%%endtext
